svg/u26d1.svg

<svg viewBox="0 0 128 128" xmlns="http://www.w3.org/2000/svg">
  <g>
    <path d="M20.85,59.93l86.68,0.3v14.18c0,23.01-17.45,41.65-38.88,41.65h-9.32 c-21.42,0-38.78-18.64-38.88-41.55L20.85,59.93 M13.11,51.9l-0.6,22.51c0,27.37,20.93,49.59,46.81,49.59h9.32 c25.88,0,46.81-22.21,46.81-49.59V52.3L13.11,51.9z" fill="#784D30"/>
    <path d="M71.42,124H56.35c-4.66,0-8.33-3.77-8.33-8.33v-0.6c0-1.69,1.29-2.98,2.98-2.98h25.79 c1.69,0,2.98,1.29,2.98,2.98v0.6C79.75,120.23,75.99,124,71.42,124z" fill="#B0805C"/>
    <path d="M112.11,63.02c-1.46-0.6-3.04-0.64-4.59-0.31v11.71c0,4.64-0.72,9.1-2.03,13.28 c0.58-0.92,1.21-1.83,2.04-2.53c1.89-1.59,4.79-1.83,6.92-0.59c0.01,0,0.01,0.01,0.02,0.02c0.65-3.28,0.99-6.68,0.99-10.17v-8.59 C114.59,64.61,113.5,63.59,112.11,63.02z" fill="#4F3320"/>
    <path d="M22.06,86.19c-1.02-3.71-1.59-7.62-1.61-11.68l0.19-6.8c-0.76-1.79-1.98-3.53-3.85-3.95 c-1.39-0.31-2.83,0.22-4.01,1.02l-0.25,9.63c0,2.83,0.24,5.61,0.67,8.31C16.41,82.9,19.56,84.14,22.06,86.19z" fill="#4F3320"/>
    <path d="M63.99,49.38c23.47,0,59.4,11.54,59.4,11.54c0.57,2.03,0.1,5.02,0.1,5.02 c0,9.15-26.64,16.56-59.5,16.56s-59.5-7.42-59.5-16.56c0,0-0.38-1.67,0.07-4.77C4.55,61.17,42.01,49.38,63.99,49.38z" fill="#C62828"/>
    <path d="M117.01,54.96c-1.21-15.3-9.97-40.35-36.36-47.87V6.68C80.65,5.19,79.3,4,77.61,4H50.39 c-1.69,0-3.04,1.19-3.04,2.68v0.39C21.07,14.5,12.23,39.3,11,54.65c-1.54,2.36-6.51,4.31-6.51,7.1c0,9.15,26.64,16.56,59.5,16.56 s59.5-7.42,59.5-16.56C123.5,58.16,118.33,57.58,117.01,54.96z" fill="#F44336"/>
    <path d="M39.5,38.84c2.82-3.47,6.03-9.08,7.21-17.46c0.59-4.15,0.63-11.94,0.63-14.3 c-3.15,0.89-6.05,2.03-8.72,3.37c1.07,2.89,2.44,7.43,2.27,13.32c-0.17,5.68-1.69,10.52-3.19,13.98 C37.21,38.88,38.72,39.8,39.5,38.84z" fill="#C62828"/>
    <path d="M88.38,38.84c0.78,0.96,2.29,0.04,1.8-1.09c-1.5-3.46-3.02-8.3-3.19-13.98 c-0.17-5.92,1.21-10.48,2.28-13.36c-2.68-1.35-5.6-2.48-8.77-3.37c-0.1,2.33-0.37,10.25,0.66,14.33 C83.32,29.93,85.56,35.38,88.38,38.84z" fill="#C62828"/>
    <path d="M33.64,31.53c-2.8,2.27-5.34,4.88-7.54,7.74c-1.03,1.34-2.14,4.02-4.42,3.51s-2.22-2.67-1.76-4.78 c1.2-5.4,3.98-11.02,8.58-14.18c2.94-2.02,5.3-1.93,6.82,0.18C37.5,27.02,36.21,29.44,33.64,31.53z" fill="#FF7555"/>
    <path d="M39.05,67.55c8.29,0.91,6.86,3.44-1.22,4c-8.07,0.55-22.53-2.19-25.75-6.21 c-1.61-2,0.87-5,4.49-3.58C23.79,64.6,23.94,65.89,39.05,67.55z" fill="#FF7555"/>
    <path d="M80.27,38.32h-9.08c-0.85,0-1.53-0.72-1.53-1.61v-9.54c0-0.89-0.69-1.61-1.53-1.61h-8.26 c-0.85,0-1.53,0.72-1.53,1.61v9.54c0,0.89-0.69,1.61-1.53,1.61h-9.08c-0.85,0-1.53,0.72-1.53,1.61v8.67c0,0.89,0.69,1.61,1.53,1.61 h9.08c0.85,0,1.53,0.72,1.53,1.61v9.54c0,0.89,0.69,1.61,1.53,1.61h8.26c0.85,0,1.53-0.72,1.53-1.61v-9.54 c0-0.89,0.69-1.61,1.53-1.61h9.08c0.85,0,1.53-0.72,1.53-1.61v-8.67C81.8,39.04,81.12,38.32,80.27,38.32z" fill="#FAFAFA"/>
  </g>
</svg>

<svg viewBox="0 0 128 128" xmlns="http://www.w3.org/2000/svg">
  <defs/>
  <path d="M20.85,59.93 L107.53,60.23 L107.53,74.41 C107.53,97.42 90.08,116.06 68.65,116.06 L59.33,116.06 C37.91,116.06 20.55,97.42 20.45,74.51 L20.85,59.93 M13.11,51.9 L12.51,74.41 C12.51,101.78 33.44,124 59.32,124 L68.64,124 C94.52,124 115.45,101.79 115.45,74.41 L115.45,52.3 L13.11,51.9 Z" fill="#784D30"/>
  <path d="M71.42,124 L56.35,124 C51.69,124 48.02,120.23 48.02,115.67 L48.02,115.07 C48.02,113.38 49.31,112.09 51,112.09 L76.79,112.09 C78.48,112.09 79.77,113.38 79.77,115.07 L79.77,115.67 C79.75,120.23 75.99,124 71.42,124 Z" fill="#B0805C"/>
  <path d="M112.11,63.02 C110.65,62.42 109.07,62.38 107.52,62.71 L107.52,74.42 C107.52,79.06 106.8,83.52 105.49,87.7 C106.07,86.78 106.7,85.87 107.53,85.17 C109.42,83.58 112.32,83.34 114.45,84.58 C114.46,84.58 114.46,84.59 114.47,84.6 C115.12,81.32 115.46,77.92 115.46,74.43 L115.46,65.84 C114.59,64.61 113.5,63.59 112.11,63.02 Z" fill="#4F3320"/>
  <path d="M22.06,86.19 C21.04,82.48 20.47,78.57 20.45,74.51 L20.64,67.71 C19.88,65.92 18.66,64.18 16.79,63.76 C15.4,63.45 13.96,63.98 12.78,64.78 L12.53,74.41 C12.53,77.24 12.77,80.02 13.2,82.72 C16.41,82.9 19.56,84.14 22.06,86.19 Z" fill="#4F3320"/>
  <path d="M63.99,49.38 C87.46,49.38 123.39,60.92 123.39,60.92 C123.96,62.95 123.49,65.94 123.49,65.94 C123.49,75.09 96.85,82.5 63.99,82.5 C31.13,82.5 4.49,75.08 4.49,65.94 C4.49,65.94 4.11,64.27 4.56,61.17 C4.55,61.17 42.01,49.38 63.99,49.38 Z" fill="#C62828"/>
  <path d="M117.01,54.96 C115.8,39.66 107.04,14.61 80.65,7.09 L80.65,6.68 C80.65,5.19 79.3,4 77.61,4 L50.39,4 C48.7,4 47.35,5.19 47.35,6.68 L47.35,7.07 C21.07,14.5 12.23,39.3 11,54.65 C9.46,57.01 4.49,58.96 4.49,61.75 C4.49,70.9 31.13,78.31 63.99,78.31 C96.85,78.31 123.49,70.89 123.49,61.75 C123.5,58.16 118.33,57.58 117.01,54.96 Z" fill="#F44336"/>
  <path d="M39.5,38.84 C42.32,35.37 45.53,29.76 46.71,21.38 C47.3,17.23 47.34,9.44 47.34,7.08 C44.19,7.97 41.29,9.11 38.62,10.45 C39.69,13.34 41.06,17.88 40.89,23.77 C40.72,29.45 39.2,34.29 37.7,37.75 C37.21,38.88 38.72,39.8 39.5,38.84 Z" fill="#C62828"/>
  <path d="M88.38,38.84 C89.16,39.8 90.67,38.88 90.18,37.75 C88.68,34.29 87.16,29.45 86.99,23.77 C86.82,17.85 88.2,13.29 89.27,10.41 C86.59,9.06 83.67,7.93 80.5,7.04 C80.4,9.37 80.13,17.29 81.16,21.37 C83.32,29.93 85.56,35.38 88.38,38.84 Z" fill="#C62828"/>
  <path d="M33.64,31.53 C30.84,33.8 28.3,36.41 26.1,39.27 C25.07,40.61 23.96,43.29 21.68,42.78 C19.4,42.27 19.46,40.11 19.92,38 C21.12,32.6 23.9,26.98 28.5,23.82 C31.44,21.8 33.8,21.89 35.32,24 C37.5,27.02 36.21,29.44 33.64,31.53 Z" fill="#FF7555"/>
  <path d="M39.05,67.55 C47.34,68.46 45.91,70.99 37.83,71.55 C29.76,72.1 15.3,69.36 12.08,65.34 C10.47,63.34 12.95,60.34 16.57,61.76 C23.79,64.6 23.94,65.89 39.05,67.55 Z" fill="#FF7555"/>
  <path d="M80.27,38.32 L71.19,38.32 C70.34,38.32 69.66,37.6 69.66,36.71 L69.66,27.17 C69.66,26.28 68.97,25.56 68.13,25.56 L59.87,25.56 C59.02,25.56 58.34,26.28 58.34,27.17 L58.34,36.71 C58.34,37.6 57.65,38.32 56.81,38.32 L47.73,38.32 C46.88,38.32 46.2,39.04 46.2,39.93 L46.2,48.6 C46.2,49.49 46.89,50.21 47.73,50.21 L56.81,50.21 C57.66,50.21 58.34,50.93 58.34,51.82 L58.34,61.36 C58.34,62.25 59.03,62.97 59.87,62.97 L68.13,62.97 C68.98,62.97 69.66,62.25 69.66,61.36 L69.66,51.82 C69.66,50.93 70.35,50.21 71.19,50.21 L80.27,50.21 C81.12,50.21 81.8,49.49 81.8,48.6 L81.8,39.93 C81.8,39.04 81.12,38.32 80.27,38.32 Z" fill="#FAFAFA"/>
</svg>
